static/img/emoji/svg/smiling-black-emoticon-face.svg

<svg xmlns="http://www.w3.org/2000/svg" width="478.125" height="478.125" viewBox="0 0 478.125 478.125"><path d="M239.062 0C107.1 0 0 107.1 0 239.062c0 131.963 107.1 239.062 239.062 239.062 131.963 0 239.062-107.1 239.062-239.062C478.125 107.1 371.025 0 239.062 0zM97.538 156.825l63.112-42.075 11.475 15.3-65.025 42.075-9.562-15.3zm74.587 34.425c0 11.475-7.65 19.125-19.125 19.125s-19.125-7.65-19.125-19.125 7.65-19.125 19.125-19.125 19.125 7.65 19.125 19.125zM344.25 325.125s-38.25 38.25-105.188 38.25-105.188-38.25-105.188-38.25V306s38.25 38.25 105.188 38.25S344.25 306 344.25 306v19.125zm-19.125-114.75c-11.475 0-19.125-7.65-19.125-19.125s7.65-19.125 19.125-19.125 19.125 7.65 19.125 19.125-7.65 19.125-19.125 19.125zm45.9-38.25l-63.113-42.075 11.476-15.3 63.112 42.075-11.475 15.3z"/></svg>

<?xml version="1.0" encoding="iso-8859-1"?>
<!-- Generator: Adobe Illustrator 16.0.0, SVG Export Plug-In . SVG Version: 6.00 Build 0)  -->
<!DOCTYPE svg PUBLIC "-//W3C//DTD SVG 1.1//EN" "http://www.w3.org/Graphics/SVG/1.1/DTD/svg11.dtd">
<svg version="1.1" id="Capa_1" xmlns="http://www.w3.org/2000/svg" xmlns:xlink="http://www.w3.org/1999/xlink" x="0px" y="0px"
	 width="478.125px" height="478.125px" viewBox="0 0 478.125 478.125" style="enable-background:new 0 0 478.125 478.125;"
	 xml:space="preserve">
<g>
	<path d="M239.062,0C107.1,0,0,107.1,0,239.062c0,131.963,107.1,239.062,239.062,239.062c131.963,0,239.062-107.1,239.062-239.062
		C478.125,107.1,371.025,0,239.062,0z M97.538,156.825l63.112-42.075l11.475,15.3L107.1,172.125L97.538,156.825z M172.125,191.25
		c0,11.475-7.65,19.125-19.125,19.125s-19.125-7.65-19.125-19.125s7.65-19.125,19.125-19.125S172.125,179.775,172.125,191.25z
		 M344.25,325.125c0,0-38.25,38.25-105.188,38.25s-105.188-38.25-105.188-38.25V306c0,0,38.25,38.25,105.188,38.25
		S344.25,306,344.25,306V325.125z M325.125,210.375c-11.475,0-19.125-7.65-19.125-19.125s7.65-19.125,19.125-19.125
		s19.125,7.65,19.125,19.125S336.6,210.375,325.125,210.375z M371.025,172.125l-63.113-42.075l11.476-15.3l63.112,42.075
		L371.025,172.125z"/>
</g>
<g>
</g>
<g>
</g>
<g>
</g>
<g>
</g>
<g>
</g>
<g>
</g>
<g>
</g>
<g>
</g>
<g>
</g>
<g>
</g>
<g>
</g>
<g>
</g>
<g>
</g>
<g>
</g>
<g>
</g>
</svg>
